src/assets/outline/ArrowSwap.svg

<svg width="24" height="24" viewBox="0 0 24 24"  xmlns="http://www.w3.org/2000/svg">
<path d="M9.00994 21.2499C8.81994 21.2499 8.62994 21.1799 8.47994 21.0299L3.46994 16.0199C3.17994 15.7299 3.17994 15.2499 3.46994 14.9599C3.75994 14.6699 4.23994 14.6699 4.52994 14.9599L9.53994 19.9699C9.82994 20.2599 9.82994 20.7399 9.53994 21.0299C9.38994 21.1699 9.19994 21.2499 9.00994 21.2499Z" />
<path d="M9.00977 21.25C8.59977 21.25 8.25977 20.91 8.25977 20.5V3.5C8.25977 3.09 8.59977 2.75 9.00977 2.75C9.41977 2.75 9.75977 3.09 9.75977 3.5V20.5C9.75977 20.91 9.41977 21.25 9.00977 21.25Z" />
<path d="M20.0099 9.25994C19.8199 9.25994 19.6299 9.18994 19.4799 9.03994L14.4699 4.02994C14.1799 3.73994 14.1799 3.25994 14.4699 2.96994C14.7599 2.67994 15.2399 2.67994 15.5299 2.96994L20.5399 7.97994C20.8299 8.26994 20.8299 8.74994 20.5399 9.03994C20.3899 9.18994 20.1999 9.25994 20.0099 9.25994Z" />
<path d="M14.9902 21.25C14.5802 21.25 14.2402 20.91 14.2402 20.5V3.5C14.2402 3.09 14.5802 2.75 14.9902 2.75C15.4002 2.75 15.7402 3.09 15.7402 3.5V20.5C15.7402 20.91 15.4102 21.25 14.9902 21.25Z" />
</svg>

<?xml version="1.0" encoding="UTF-8"?>
<svg width="24" height="24" viewBox="0 0 24 24" xmlns="http://www.w3.org/2000/svg">
 <path d="m9.0099 21.25c-0.19 0-0.38-0.07-0.53-0.22l-5.01-5.01c-0.29-0.29-0.29-0.77 0-1.06s0.77-0.29 1.06 0l5.01 5.01c0.29 0.29 0.29 0.77 0 1.06-0.15 0.14-0.34 0.22-0.53 0.22z"/>
 <path d="m9.0098 21.25c-0.41 0-0.75-0.34-0.75-0.75v-17c0-0.41 0.34-0.75 0.75-0.75s0.75 0.34 0.75 0.75v17c0 0.41-0.34 0.75-0.75 0.75z"/>
 <path d="m20.01 9.2599c-0.19 0-0.38-0.07-0.53-0.22l-5.01-5.01c-0.29-0.29-0.29-0.77 0-1.06s0.77-0.29 1.06 0l5.01 5.01c0.29 0.29 0.29 0.77 0 1.06-0.15 0.15-0.34 0.22-0.53 0.22z"/>
 <path d="m14.99 21.25c-0.41 0-0.75-0.34-0.75-0.75v-17c0-0.41 0.34-0.75 0.75-0.75s0.75 0.34 0.75 0.75v17c0 0.41-0.33 0.75-0.75 0.75z"/>
</svg>
